lib/logotmp/nrk-logo-nrk-rogaland.svg

<svg width="113" height="24" viewBox="0 0 113 24" fill="none" xmlns="http://www.w3.org/2000/svg">
<path d="M0 17.9976V5.99865H4V17.9976H0ZM9.24381 7.90834L11.5081 17.9976H7.19917L4.49549 5.99865H6.91217C7.46635 5.99146 8.00406 6.18681 8.4245 6.54795C8.84562 6.89394 9.08495 7.37426 9.24381 7.90834ZM12 17.9976V5.99865H16V17.9976H12ZM19.0105 10.5617C18.5862 10.5658 18.1687 10.4548 17.8025 10.2405C17.4412 10.0317 17.1411 9.73152 16.9323 9.37016C16.7178 9.00389 16.6068 8.58632 16.611 8.16188C16.6061 7.74002 16.7172 7.32494 16.9323 6.96199C17.1433 6.60455 17.4431 6.30765 17.8025 6.10008C18.1689 5.88606 18.5862 5.77507 19.0105 5.77894C19.4322 5.7744 19.8471 5.88549 20.2102 6.10008C20.566 6.30947 20.8626 6.60612 21.072 6.96199C21.2868 7.32504 21.3979 7.74005 21.3933 8.16188C21.3973 8.58629 21.2863 9.00379 21.072 9.37016C20.8649 9.72993 20.5679 10.0298 20.2102 10.2405C19.8471 10.4555 19.4324 10.5666 19.0105 10.5617ZM22 17.9976V5.99865H26V17.9976H22ZM30.9737 12.5558C30.9848 12.5674 31.0693 12.7054 31.2272 12.9698C31.3851 13.2342 31.5906 13.5722 31.8439 13.9838C32.0974 14.3953 32.3649 14.8318 32.6463 15.2936C32.9278 15.7553 33.1926 16.1919 33.4408 16.6033C33.6881 17.0147 33.9697 17.4795 34.2857 17.9976H29.9598C29.6893 17.5582 29.4441 17.161 29.2245 16.8061C29.0048 16.4512 28.7713 16.0681 28.5238 15.6569C28.2758 15.2461 28.0306 14.8461 27.7882 14.457C27.5458 14.0679 27.3375 13.7272 27.1633 13.4346C26.9883 13.1419 26.8671 12.9447 26.7997 12.8431C26.6325 12.591 26.5336 12.2999 26.5127 11.9981C26.5294 11.7085 26.6226 11.4285 26.7828 11.1867C26.8503 11.074 26.9743 10.874 27.1545 10.5867C27.3348 10.2994 27.546 9.95861 27.7882 9.56428C28.0304 9.16995 28.2756 8.76716 28.5238 8.35593C28.772 7.9447 29.0055 7.55879 29.2245 7.19826C29.4445 6.83811 29.6897 6.43814 29.9598 5.99837H34.2857L30.9396 11.4571C30.8361 11.6191 30.7777 11.8059 30.7706 11.9981C30.7818 12.1999 30.8528 12.3939 30.9737 12.5558Z" fill="white"/>
<path d="M44.8824 13.0485C45.1134 13.0119 45.333 12.9612 45.547 12.8936C46.0032 12.7472 46.4002 12.5248 46.7381 12.2263C47.076 11.9278 47.3407 11.5561 47.5322 11.1112C47.7237 10.6663 47.8194 10.1509 47.8194 9.56524C47.8194 8.91194 47.6927 8.31497 47.4393 7.77431C47.1859 7.23366 46.7691 6.80282 46.189 6.48181C45.609 6.16079 44.8289 6.00029 43.849 6.00029H39V17.9961H40.7571V13.4005H43.3421L46.3326 17.9961H48.3939L45.5892 13.8398L44.8853 13.0485H44.8824ZM44.9134 7.69828C45.2851 7.85034 45.5611 8.08688 45.7413 8.40789C45.9215 8.72891 46.0116 9.13722 46.0116 9.63282C46.0116 10.1847 45.9018 10.6325 45.6822 10.976C45.4625 11.3196 45.1471 11.5674 44.736 11.7194C44.3249 11.8715 43.8377 11.9475 43.2746 11.9475H40.7571V7.4702H43.4773C44.063 7.4702 44.5417 7.54622 44.9134 7.69828ZM56.0391 9.73419C55.3914 9.37375 54.6283 9.19353 53.7498 9.19353C52.8712 9.19353 52.1025 9.37939 51.4435 9.75109C50.7846 10.1228 50.2721 10.6465 49.906 11.3224C49.54 11.9982 49.3569 12.7979 49.3569 13.7215C49.3569 14.6451 49.5287 15.442 49.8722 16.1122C50.2158 16.7824 50.7086 17.2921 51.3506 17.6413C51.9926 17.9905 52.736 18.165 53.5808 18.165C54.4256 18.165 55.2366 17.9792 55.9124 17.6075C56.5882 17.2358 57.1148 16.7064 57.4921 16.0193C57.8694 15.3322 58.0581 14.5212 58.0581 13.5864C58.0581 12.6515 57.8835 11.9222 57.5344 11.2632C57.1852 10.6043 56.6868 10.0946 56.0391 9.73419ZM55.9377 15.3942C55.7181 15.8673 55.4112 16.2192 55.0169 16.4501C54.6227 16.6811 54.1722 16.7965 53.6653 16.7965C53.1584 16.7965 52.7191 16.6782 52.3474 16.4417C51.9757 16.2052 51.6829 15.8504 51.4689 15.3773C51.2549 14.9042 51.1479 14.3185 51.1479 13.6202C51.1479 12.9218 51.2549 12.3643 51.4689 11.9137C51.6829 11.4632 51.9842 11.1253 52.3728 10.9C52.7614 10.6747 53.226 10.5621 53.7667 10.5621C54.1947 10.5621 54.5636 10.6325 54.8733 10.7733C55.1831 10.9141 55.4421 11.1196 55.6505 11.3899C55.8589 11.6603 56.0138 11.9841 56.1151 12.3614C56.2165 12.7388 56.2672 13.1583 56.2672 13.6202C56.2672 14.3298 56.1574 14.9211 55.9377 15.3942ZM65.5682 9.41318C65.326 9.34559 65.0641 9.29209 64.7825 9.25267C64.5009 9.21325 64.1968 9.19353 63.8702 9.19353C63.307 9.19353 62.772 9.30054 62.2651 9.51455C61.7582 9.72856 61.3049 10.0355 60.905 10.4354C60.5051 10.8352 60.1926 11.3308 59.9673 11.9222C59.742 12.5135 59.6294 13.1921 59.6294 13.9581C59.6294 14.8141 59.773 15.5547 60.0602 16.1798C60.3475 16.805 60.767 17.2893 61.3189 17.6328C61.8709 17.9764 62.541 18.1481 63.3295 18.1481C63.9377 18.1481 64.5403 18.0299 65.1373 17.7933C65.4612 17.6638 65.7822 17.4808 66.1004 17.2471V17.7089C66.1004 18.1369 66.0469 18.5114 65.9399 18.8324C65.8329 19.1534 65.6695 19.4238 65.4499 19.6434C65.2302 19.863 64.943 20.0264 64.5882 20.1334C64.2334 20.2404 63.8026 20.2939 63.2957 20.2939C62.9578 20.2939 62.6114 20.2742 62.2566 20.2347C61.9018 20.1953 61.5442 20.1277 61.1838 20.032C60.8233 19.9363 60.4685 19.8152 60.1194 19.6687L60.3052 21.1555C60.6093 21.2794 60.9275 21.3836 61.2598 21.4681C61.5921 21.5526 61.9384 21.6174 62.2989 21.6624C62.6593 21.7075 63.031 21.73 63.414 21.73C64.3714 21.73 65.1767 21.5695 65.83 21.2485C66.4833 20.9275 66.9761 20.4825 67.3084 19.9137C67.6407 19.3449 67.8068 18.6888 67.8068 17.9454V9.19353L66.1539 9.61874C65.968 9.53989 65.7737 9.46949 65.5682 9.41318ZM65.8807 16.1798C65.6555 16.3094 65.4386 16.4164 65.2302 16.5008C65.0219 16.5853 64.8191 16.6501 64.622 16.6951C64.4249 16.7402 64.2193 16.7627 64.0053 16.7627C63.4196 16.7627 62.9325 16.6529 62.5439 16.4333C62.1553 16.2136 61.868 15.8813 61.6822 15.4364C61.4963 14.9915 61.4034 14.4199 61.4034 13.7215C61.4034 13.2034 61.4682 12.7444 61.5977 12.3445C61.7273 11.9447 61.9131 11.6152 62.1553 11.3562C62.3974 11.0971 62.6959 10.8972 63.0507 10.7564C63.4055 10.6156 63.8082 10.5452 64.2588 10.5452C64.5291 10.5452 64.7938 10.5677 65.0528 10.6128C65.3119 10.6578 65.5766 10.7226 65.8469 10.8071C65.9286 10.8324 66.0159 10.8662 66.1004 10.9V16.0503C66.0272 16.0953 65.9511 16.1404 65.8807 16.1798ZM77.7414 16.9317C77.4372 16.9317 77.2176 16.8416 77.0824 16.6613C76.9473 16.4811 76.8853 16.1826 76.8966 15.7659L76.9304 12.2854C76.9304 11.8912 76.8853 11.5307 76.7952 11.2041C76.7051 10.8775 76.5699 10.5902 76.3897 10.3424C76.2095 10.0946 75.9758 9.88625 75.6886 9.7173C75.4013 9.54834 75.0606 9.41881 74.6664 9.3287C74.2722 9.23859 73.8272 9.19353 73.3316 9.19353C72.9712 9.19353 72.6164 9.21606 72.2672 9.26112C71.918 9.30617 71.5886 9.37094 71.2788 9.45542C70.9691 9.53989 70.6734 9.63845 70.3918 9.75109L70.1891 11.1872C70.4707 11.0858 70.7382 11.0014 70.9916 10.9338C71.245 10.8662 71.49 10.8099 71.7266 10.7648C71.9631 10.7198 72.1968 10.6888 72.4277 10.6719C72.6586 10.655 72.8867 10.6465 73.112 10.6465C73.5175 10.6465 73.8582 10.686 74.1342 10.7648C74.4101 10.8437 74.627 10.9619 74.7846 11.1196C74.9423 11.2773 75.055 11.4772 75.1226 11.7194C75.1901 11.9616 75.2239 12.246 75.2239 12.5726V12.9978L73.2472 13.1302C72.4587 13.1752 71.8054 13.3217 71.2873 13.5695C70.7692 13.8173 70.3834 14.1298 70.1299 14.5072C69.8765 14.8845 69.7498 15.2984 69.7498 15.749C69.7498 16.1995 69.8483 16.574 70.0455 16.9401C70.2426 17.3062 70.5411 17.6019 70.9409 17.8271C71.3408 18.0524 71.8392 18.165 72.4362 18.165C72.9881 18.165 73.464 18.0862 73.8638 17.9285C74.2637 17.7708 74.6185 17.5455 74.9283 17.2527C75.0437 17.1429 75.1535 17.0246 75.2605 16.8979C75.3 17.0865 75.3591 17.2555 75.4436 17.3963C75.6013 17.661 75.8209 17.8525 76.1025 17.9707C76.3841 18.089 76.7051 18.1481 77.0655 18.1481C77.1669 18.1481 77.2655 18.1453 77.3612 18.1397C77.457 18.1341 77.5499 18.12 77.64 18.0975C77.7301 18.0749 77.8118 18.0552 77.885 18.0383C77.9582 18.0214 78.0229 18.0017 78.0793 17.9792L78.2651 16.8472C78.1637 16.881 78.068 16.9035 77.9779 16.9148C77.8878 16.926 77.8089 16.9317 77.7414 16.9317ZM74.9283 16.1714C74.7424 16.3178 74.5453 16.4417 74.3369 16.5431C74.1285 16.6444 73.9089 16.7177 73.678 16.7627C73.4471 16.8078 73.2077 16.8303 72.9599 16.8303C72.6446 16.8303 72.377 16.7796 72.1574 16.6782C71.9378 16.5769 71.7716 16.4333 71.659 16.2474C71.5463 16.0616 71.49 15.8391 71.49 15.58C71.49 15.2421 71.5632 14.9774 71.7097 14.7859C71.8561 14.5945 72.0926 14.4537 72.4193 14.3636C72.7459 14.2734 73.1852 14.2284 73.7371 14.2284H75.2155L75.207 15.9067C75.1197 16.0052 75.0268 16.0953 74.9254 16.1714H74.9283ZM82.7086 16.7289C82.7762 16.7177 82.8438 16.7064 82.9114 16.6951L82.7424 18.0299C82.6636 18.0524 82.565 18.0749 82.4468 18.0975C82.3285 18.12 82.2074 18.1369 82.0835 18.1481C81.9596 18.1594 81.8301 18.165 81.6949 18.165C81.4246 18.165 81.174 18.1341 80.9431 18.0721C80.7122 18.0102 80.5122 17.906 80.3433 17.7595C80.1743 17.6131 80.0448 17.4245 79.9547 17.1936C79.8646 16.9626 79.8195 16.6839 79.8195 16.3572V5.49342L81.5428 5.23999V15.5969C81.5428 15.7997 81.5569 15.9743 81.5851 16.1207C81.6132 16.2671 81.6611 16.3882 81.7287 16.4839C81.7963 16.5797 81.8808 16.6501 81.9821 16.6951C82.0835 16.7402 82.2074 16.7627 82.3538 16.7627C82.4214 16.7627 82.4805 16.7627 82.5312 16.7543C82.5819 16.7486 82.6411 16.7402 82.7086 16.7289ZM91.9505 16.9317C91.6463 16.9317 91.4267 16.8416 91.2915 16.6613C91.1564 16.4811 91.0944 16.1826 91.1057 15.7659L91.1395 12.2854C91.1395 11.8912 91.0944 11.5307 91.0043 11.2041C90.9142 10.8775 90.779 10.5902 90.5988 10.3424C90.4186 10.0946 90.1849 9.88625 89.8977 9.7173C89.6104 9.54834 89.2697 9.41881 88.8755 9.3287C88.4813 9.23859 88.0363 9.19353 87.5407 9.19353C87.1803 9.19353 86.8255 9.21606 86.4763 9.26112C86.1272 9.30617 85.7977 9.37094 85.4879 9.45542C85.1782 9.53989 84.8825 9.63845 84.6009 9.75109L84.3982 11.1872C84.6798 11.0858 84.9473 11.0014 85.2007 10.9338C85.4542 10.8662 85.6991 10.8099 85.9357 10.7648C86.1722 10.7198 86.4059 10.6888 86.6368 10.6719C86.8677 10.655 87.0958 10.6465 87.3211 10.6465C87.7266 10.6465 88.0673 10.686 88.3433 10.7648C88.6192 10.8437 88.8361 10.9619 88.9938 11.1196C89.1514 11.2773 89.2641 11.4772 89.3317 11.7194C89.3993 11.9616 89.433 12.246 89.433 12.5726V12.9978L87.4563 13.1302C86.6678 13.1752 86.0145 13.3217 85.4964 13.5695C84.9783 13.8173 84.5925 14.1298 84.339 14.5072C84.0856 14.8845 83.9589 15.2984 83.9589 15.749C83.9589 16.1995 84.0575 16.574 84.2546 16.9401C84.4517 17.3062 84.7502 17.6019 85.15 17.8271C85.5499 18.0524 86.0483 18.165 86.6453 18.165C87.1972 18.165 87.6731 18.0862 88.073 17.9285C88.4728 17.7708 88.8276 17.5455 89.1374 17.2527C89.2528 17.1429 89.3626 17.0246 89.4696 16.8979C89.5091 17.0865 89.5682 17.2555 89.6527 17.3963C89.8104 17.661 90.03 17.8525 90.3116 17.9707C90.5932 18.089 90.9142 18.1481 91.2746 18.1481C91.376 18.1481 91.4746 18.1453 91.5703 18.1397C91.6661 18.1341 91.759 18.12 91.8491 18.0975C91.9392 18.0749 92.0209 18.0552 92.0941 18.0383C92.1673 18.0214 92.2321 18.0017 92.2884 17.9792L92.4742 16.8472C92.3729 16.881 92.2771 16.9035 92.187 16.9148C92.0969 16.926 92.018 16.9317 91.9505 16.9317ZM89.1374 16.1714C88.9515 16.3178 88.7544 16.4417 88.546 16.5431C88.3376 16.6444 88.118 16.7177 87.8871 16.7627C87.6562 16.8078 87.4168 16.8303 87.169 16.8303C86.8537 16.8303 86.5862 16.7796 86.3665 16.6782C86.1469 16.5769 85.9807 16.4333 85.8681 16.2474C85.7555 16.0616 85.6991 15.8391 85.6991 15.58C85.6991 15.2421 85.7723 14.9774 85.9188 14.7859C86.0652 14.5945 86.3017 14.4537 86.6284 14.3636C86.955 14.2734 87.3943 14.2284 87.9462 14.2284H89.4246L89.4161 15.9067C89.3288 16.0052 89.2359 16.0953 89.1345 16.1714H89.1374ZM101.665 10.6297C101.879 11.114 101.986 11.7391 101.986 12.5051V17.9961H100.263V12.8599C100.263 12.5107 100.229 12.2066 100.162 11.9475C100.094 11.6884 99.9871 11.4744 99.8407 11.3055C99.6942 11.1365 99.5084 11.0098 99.2831 10.9253C99.0578 10.8408 98.7875 10.7986 98.4721 10.7986C98.2469 10.7986 98.0131 10.8183 97.771 10.8577C97.5288 10.8972 97.2866 10.9563 97.0445 11.0351C96.8023 11.114 96.5601 11.2069 96.318 11.3139C96.1377 11.3928 95.966 11.4829 95.8026 11.5786V17.9961H94.0793V9.46386L95.8026 9.21043V10.4185C95.9547 10.2974 96.1124 10.1791 96.2757 10.0721C96.7037 9.79051 97.1571 9.57368 97.6358 9.42162C98.1145 9.26956 98.596 9.19353 99.0804 9.19353C99.7337 9.19353 100.274 9.3118 100.702 9.54834C101.13 9.78488 101.451 10.1453 101.665 10.6297ZM110.451 5.49342V9.60466C110.434 9.59903 110.417 9.59058 110.4 9.58213C110.107 9.46949 109.784 9.37657 109.429 9.30336C109.074 9.23014 108.683 9.19353 108.255 9.19353C107.5 9.19353 106.799 9.37939 106.151 9.75109C105.503 10.1228 104.983 10.6606 104.588 11.3646C104.194 12.0686 103.997 12.9274 103.997 13.9412C103.997 14.8085 104.146 15.5575 104.445 16.1883C104.743 16.819 105.171 17.3062 105.729 17.6497C106.286 17.9933 106.954 18.165 107.731 18.165C108.181 18.165 108.607 18.1087 109.006 17.9961C109.406 17.8834 109.798 17.7089 110.181 17.4723C110.307 17.3935 110.434 17.3062 110.561 17.2161L110.772 17.9961H112.174V5.25689L110.451 5.49342ZM109.547 16.5515C109.102 16.7148 108.7 16.7965 108.339 16.7965C107.798 16.7965 107.337 16.6867 106.954 16.467C106.571 16.2474 106.278 15.9095 106.075 15.4533C105.872 14.9971 105.771 14.4255 105.771 13.7384C105.771 13.0513 105.884 12.4572 106.109 11.9897C106.334 11.5223 106.658 11.1675 107.08 10.9253C107.503 10.6832 108.007 10.5621 108.593 10.5621C108.874 10.5621 109.144 10.5818 109.404 10.6212C109.663 10.6606 109.924 10.7226 110.189 10.8071C110.271 10.8324 110.364 10.869 110.451 10.9V16.1066C110.133 16.2953 109.832 16.4473 109.547 16.5515Z" fill="white"/>
</svg>

<svg xmlns="http://www.w3.org/2000/svg" viewBox="0 0 113 24"><path fill="#fff" d="M0 17.998v-12h4v12H0Zm9.244-10.09 2.264 10.09H7.2l-2.704-12h2.417a2.276 2.276 0 0 1 1.513.55c.42.346.66.826.819 1.36ZM12 17.998v-12h4v12h-4Zm7.01-7.436a2.381 2.381 0 0 1-2.078-1.192 2.345 2.345 0 0 1-.321-1.208 2.301 2.301 0 0 1 .321-1.2A2.41 2.41 0 0 1 20.21 6.1c.356.21.653.506.862.862.215.363.326.778.321 1.2a2.35 2.35 0 0 1-.321 1.208 2.4 2.4 0 0 1-.862.87 2.301 2.301 0 0 1-1.2.322ZM22 17.998v-12h4v12h-4Zm8.974-5.442c.01.011.095.15.253.414s.364.602.617 1.014a316.22 316.22 0 0 1 1.597 2.62c.247.41.529.876.845 1.394H29.96c-.27-.44-.516-.837-.736-1.192-.22-.355-.453-.738-.7-1.15-.248-.41-.493-.81-.736-1.199-.242-.39-.45-.73-.625-1.022a18.04 18.04 0 0 0-.363-.592 1.747 1.747 0 0 1-.287-.845c.016-.29.11-.57.27-.811.067-.113.191-.313.371-.6a182.106 182.106 0 0 0 1.37-2.23l.7-1.159.736-1.2h4.326l-3.346 5.46a1.079 1.079 0 0 0-.17.54c.012.202.083.396.204.558ZM44.882 13.049c.231-.037.451-.088.665-.155a3.296 3.296 0 0 0 1.191-.668c.338-.298.603-.67.794-1.115.192-.445.287-.96.287-1.546 0-.653-.126-1.25-.38-1.79-.253-.541-.67-.972-1.25-1.293-.58-.321-1.36-.482-2.34-.482H39v11.996h1.757v-4.595h2.585l2.99 4.595h2.062l-2.805-4.156-.704-.791h-.003Zm.031-5.35c.372.151.648.388.828.709.18.32.27.73.27 1.225 0 .552-.11 1-.329 1.343-.22.344-.535.591-.946.743-.411.152-.898.229-1.461.229h-2.518V7.47h2.72c.586 0 1.065.076 1.436.228ZM56.04 9.733c-.648-.36-1.41-.54-2.29-.54-.878 0-1.647.185-2.306.557a3.896 3.896 0 0 0-1.537 1.571c-.366.676-.55 1.476-.55 2.4 0 .923.173 1.72.516 2.39.344.67.837 1.18 1.479 1.53.642.349 1.385.523 2.23.523s1.656-.186 2.331-.557a3.935 3.935 0 0 0 1.58-1.589c.377-.687.566-1.498.566-2.433 0-.934-.175-1.664-.524-2.323a3.691 3.691 0 0 0-1.495-1.529Zm-.101 5.66c-.22.473-.527.825-.921 1.056a2.623 2.623 0 0 1-1.352.347c-.507 0-.946-.119-1.318-.355-.371-.237-.664-.592-.878-1.065-.214-.473-.321-1.059-.321-1.757s.107-1.256.32-1.706c.215-.45.516-.789.905-1.014.388-.225.853-.338 1.394-.338.428 0 .797.07 1.106.211.31.141.57.347.778.617.208.27.363.594.464.971.102.378.152.797.152 1.26 0 .709-.11 1.3-.33 1.773Zm9.63-5.98a6.042 6.042 0 0 0-.785-.161 6.594 6.594 0 0 0-.913-.06c-.563 0-1.098.108-1.605.322-.507.214-.96.52-1.36.92-.4.4-.712.896-.938 1.487-.225.591-.338 1.27-.338 2.036 0 .856.144 1.597.431 2.222.287.625.707 1.11 1.259 1.453.552.343 1.222.515 2.01.515.609 0 1.211-.118 1.808-.355.324-.13.645-.312.963-.546v.462c0 .428-.053.802-.16 1.123-.107.321-.27.592-.49.811-.22.22-.507.383-.862.49-.355.107-.785.16-1.292.16a9.39 9.39 0 0 1-1.04-.058 7.33 7.33 0 0 1-1.072-.203 8.156 8.156 0 0 1-1.065-.363l.186 1.486c.304.124.623.229.955.313.332.085.678.15 1.039.194.36.046.732.068 1.115.068.957 0 1.763-.16 2.416-.482.653-.32 1.146-.765 1.478-1.334.333-.57.499-1.225.499-1.969V9.194l-1.653.425a4.631 4.631 0 0 0-.586-.206Zm.313 6.766c-.225.13-.442.236-.65.32-.21.085-.412.15-.609.195a2.757 2.757 0 0 1-.617.068c-.585 0-1.072-.11-1.461-.33a1.98 1.98 0 0 1-.862-.997c-.186-.444-.279-1.016-.279-1.714 0-.519.065-.978.195-1.377.13-.4.315-.73.557-.989.242-.259.54-.459.896-.6.355-.14.757-.21 1.208-.21.27 0 .535.022.794.067.259.045.524.11.794.194.082.025.169.06.253.093v5.15a6.37 6.37 0 0 1-.22.13Zm11.86.752c-.304 0-.523-.09-.659-.27-.135-.18-.197-.48-.185-.896l.033-3.48a4.06 4.06 0 0 0-.135-1.082 2.647 2.647 0 0 0-.405-.862 2.285 2.285 0 0 0-.701-.625 3.581 3.581 0 0 0-1.023-.388 6.01 6.01 0 0 0-1.334-.135c-.36 0-.716.022-1.065.067-.349.045-.678.11-.988.194-.31.085-.606.183-.887.296l-.203 1.436a9.938 9.938 0 0 1 1.538-.422c.236-.045.47-.076.7-.093.232-.017.46-.026.685-.026.406 0 .746.04 1.022.119.276.079.493.197.65.355.158.157.271.357.339.6.067.242.1.526.1.853v.425l-1.976.132c-.788.045-1.442.192-1.96.44-.518.247-.904.56-1.157.937a2.18 2.18 0 0 0-.38 1.242c0 .45.098.825.296 1.191.197.366.495.662.895.887.4.225.898.338 1.495.338.552 0 1.028-.079 1.428-.236.4-.158.754-.383 1.064-.676.116-.11.225-.228.332-.355.04.189.1.358.184.498.157.265.377.456.659.575.281.118.602.177.963.177.1 0 .2-.003.295-.008.096-.006.189-.02.279-.043l.245-.059a1.34 1.34 0 0 0 .194-.059l.186-1.132a1.504 1.504 0 0 1-.287.068c-.09.011-.17.017-.237.017Zm-2.813-.76c-.186.146-.383.27-.591.371a2.668 2.668 0 0 1-.659.22c-.23.045-.47.067-.718.067-.315 0-.583-.05-.803-.152a1.104 1.104 0 0 1-.498-.43 1.263 1.263 0 0 1-.169-.668c0-.338.073-.603.22-.794.146-.191.383-.332.71-.422.326-.09.765-.136 1.317-.136h1.479l-.009 1.679c-.087.098-.18.188-.282.264h.003Zm7.78.557.203-.034-.169 1.335a3.75 3.75 0 0 1-1.047.135c-.27 0-.521-.03-.752-.093a1.49 1.49 0 0 1-.6-.313 1.412 1.412 0 0 1-.388-.565 2.304 2.304 0 0 1-.135-.837V5.493l1.723-.253v10.357c0 .203.014.377.042.524a.925.925 0 0 0 .144.363.61.61 0 0 0 .253.211.913.913 0 0 0 .372.068c.067 0 .127 0 .177-.009.05-.005.11-.014.178-.025Zm9.243.203c-.305 0-.524-.09-.66-.27-.135-.18-.197-.48-.185-.896l.034-3.48a4.06 4.06 0 0 0-.136-1.082 2.647 2.647 0 0 0-.405-.862 2.285 2.285 0 0 0-.701-.625 3.581 3.581 0 0 0-1.022-.388 6.01 6.01 0 0 0-1.335-.135c-.36 0-.715.022-1.065.067-.349.045-.678.11-.988.194-.31.085-.606.183-.887.296l-.203 1.436a9.938 9.938 0 0 1 1.538-.422c.236-.045.47-.076.7-.093.232-.017.46-.026.685-.026.406 0 .746.04 1.022.119.276.079.493.197.65.355.158.157.271.357.339.6.067.242.101.526.101.853v.425l-1.977.132c-.788.045-1.442.192-1.96.44-.518.247-.903.56-1.157.937a2.18 2.18 0 0 0-.38 1.242c0 .45.099.825.296 1.191.197.366.495.662.895.887.4.225.898.338 1.495.338.552 0 1.028-.079 1.428-.236.4-.158.755-.383 1.064-.676.116-.11.226-.228.333-.355.04.189.098.358.183.498.157.265.377.456.659.575.281.118.602.177.963.177.101 0 .2-.003.295-.008.096-.006.189-.02.28-.043l.244-.059c.073-.017.138-.036.194-.059l.186-1.132a1.502 1.502 0 0 1-.287.068c-.09.011-.169.017-.236.017Zm-2.814-.76c-.186.146-.383.27-.591.371a2.668 2.668 0 0 1-.659.22c-.23.045-.47.067-.718.067-.315 0-.583-.05-.802-.152a1.104 1.104 0 0 1-.499-.43 1.264 1.264 0 0 1-.169-.668c0-.338.073-.603.22-.794.146-.191.383-.332.71-.422.326-.09.765-.136 1.317-.136h1.479l-.009 1.679c-.087.098-.18.188-.281.264h.002Zm12.528-5.542c.214.484.321 1.11.321 1.875v5.491h-1.723V12.86c0-.35-.034-.653-.101-.912a1.572 1.572 0 0 0-.321-.643 1.35 1.35 0 0 0-.558-.38 2.313 2.313 0 0 0-.81-.126c-.226 0-.46.02-.702.059-.242.04-.484.098-.727.177a7.688 7.688 0 0 0-.726.279c-.18.079-.352.169-.515.265v6.417h-1.724V9.464l1.724-.254v1.208c.152-.12.31-.239.473-.346a5.487 5.487 0 0 1 1.36-.65c.479-.152.96-.228 1.444-.228.654 0 1.194.118 1.622.354.428.237.749.597.963 1.082Zm8.786-5.137v4.112c-.017-.006-.034-.014-.051-.023a5.82 5.82 0 0 0-2.145-.389c-.755 0-1.456.186-2.104.558-.648.372-1.168.91-1.563 1.614-.394.704-.591 1.562-.591 2.576 0 .867.149 1.616.448 2.247.298.631.726 1.118 1.284 1.462.557.343 1.225.515 2.002.515.45 0 .876-.056 1.275-.169.4-.113.792-.287 1.175-.524.126-.079.253-.166.38-.256l.211.78h1.402V5.256l-1.723.237Zm-.904 11.059c-.445.163-.847.245-1.208.245-.541 0-1.002-.11-1.385-.33-.383-.22-.676-.557-.879-1.014-.203-.456-.304-1.027-.304-1.715 0-.687.113-1.28.338-1.748.225-.468.549-.822.971-1.065.423-.242.927-.363 1.513-.363a5.11 5.11 0 0 1 1.596.245c.082.025.175.062.262.093v5.207c-.318.188-.619.34-.904.445Z"/></svg>
